symbols/web/repeat_one/materialsymbolsoutlined/repeat_one_24px.svg

<svg xmlns="http://www.w3.org/2000/svg" height="24" width="24"><path d="M11.5 15v-4.5H10V9h3v6ZM7 22l-4-4 4-4 1.4 1.45L6.85 17H17v-4h2v6H6.85l1.55 1.55ZM5 11V5h12.15L15.6 3.45 17 2l4 4-4 4-1.4-1.45L17.15 7H7v4Z"/></svg>

<svg xmlns="http://www.w3.org/2000/svg" height="24" width="24"><path d="M11.5 15V10.5H10V9H13V15ZM7 22 3 18 7 14 8.4 15.45 6.85 17H17V13H19V19H6.85L8.4 20.55ZM5 11V5H17.15L15.6 3.45L17 2L21 6L17 10L15.6 8.55L17.15 7H7V11Z"/></svg>
